packages/ffe-icons/icons/open/500/md/thermometer.svg

<svg xmlns="http://www.w3.org/2000/svg" height="24" viewBox="0 -960 960 960" width="24"><path d="M480.019-111.869q-86.367 0-147.258-60.879Q271.869-233.626 271.869-320q0-48.717 21-91.294 21-42.576 59-72.532V-720q0-53.388 37.364-90.759 37.363-37.372 90.739-37.372 53.376 0 90.767 37.372 37.392 37.371 37.392 90.759v236.174q38.239 29.956 59.119 72.532 20.881 42.577 20.881 91.294 0 86.374-60.873 147.252-60.873 60.879-147.239 60.879ZM480-202.87q48.804 0 82.967-34.163T597.13-320q0-29.615-13.217-55.144-13.217-25.53-37.413-42.052l-29.37-21.369V-720q0-15.565-10.782-26.348Q495.565-757.13 480-757.13t-26.348 10.782Q442.87-735.565 442.87-720v281.435l-29.37 21.369q-24.196 16.522-37.413 42.052Q362.87-349.615 362.87-320q0 48.804 34.163 82.967T480-202.87ZM480-320Z"/></svg>

<svg xmlns="http://www.w3.org/2000/svg" height="24" viewBox="0 -960 960 960" width="24"><path d="M480.02-111.87q-86.37 0-147.26-60.88-60.89-60.88-60.89-147.25 0-48.72 21-91.29 21-42.58 59-72.54V-720q0-53.39 37.36-90.76 37.37-37.37 90.74-37.37 53.38 0 90.77 37.37 37.39 37.37 37.39 90.76v236.17q38.24 29.96 59.12 72.54 20.88 42.57 20.88 91.29 0 86.37-60.87 147.25-60.87 60.88-147.24 60.88Zm-.02-91q48.8 0 82.97-34.16 34.16-34.17 34.16-82.97 0-29.61-13.22-55.14-13.21-25.53-37.41-42.06l-29.37-21.37V-720q0-15.57-10.78-26.35-10.78-10.78-26.35-10.78-15.57 0-26.35 10.78-10.78 10.78-10.78 26.35v281.43L413.5-417.2q-24.2 16.53-37.41 42.06-13.22 25.53-13.22 55.14 0 48.8 34.16 82.97 34.17 34.16 82.97 34.16ZM480-320Z"/></svg>
